X: 3
T: The Ash Grove
R: waltz
M: 3/4
L: 1/8
K: Gmaj
G2 B2 d2 | B2 G2 B2 | A2 c2 A2 | F2 D2 D2 | G2 BG G2 | E2 C2 E2 | D2 G2 F2 | G2 z2 :|G2 B2 d2 | d2 c2 B2 | A2 c2 c2 | c2 B2 A2 | G2 B2 B2 | B2 A2 G2 | F2 d2 ^c2 | d2 z2 D2 |G2 B2 d2 | B2 G2 B2 | A2 c2 A2 | F2 D2 D2 | G2 BG G2 | E2 C2 E2 | D2 G2 F2 | G2 z2 |]


Tune 997	Setting 14206

